!!!OTL: Wallfahrtslied. / (12. Jahrh.) / I. Aelteste Lesart der Melodie.
!!!ARE: Europa, Mitteleuropa, Deutschland
!!!SCT: A0568A
!!!TXL: @@DE, (@@LAT)
!!!YEM: Copyright 1995, estate of Helmut Schaffrath.
**kern	**text
*M2/1	*
*met(c|)	*
*clefC4	*
*k[b-]	*
*G:dor	*
=1	=1
!LO:TX:a:t=dor. tr.	!
1ryy	.
2ryy	.
{2G	A._Jn
=2	=2
1G	Got-
1G	-tes
=3	=3
1G	na-
1G	-men
=4	=4
1G	fa-
1B-	-ren
=5	=5
0c}	wir,
=6	=6
{1d	ſei-
2d	-ner
2d	ge-
=7	=7
1c	-na-
2G	-den
2G	be-
=7	=7
1A	-ge-
1B-	-ren
=9	=9
0c}	wir,
=10	=10
{1d	das
1d	half
=11	=11
1c	vns
1G	die
=12	=12
1A	got-
1G	-tes
=13	=13
0F}	krafft,
=14	=14
{1A	vnd
1B-	das
=15	=15
0c	hey-
=16	=16
1B-	-li-
1A	-ge
=17	=17
0B-}	grab,
=18	=18
{1A	do
1G	Gott
=19	=19
1A	ſel-
1G	-ber
=20	=20
1G	in-
1F	-ne
=21	=21
*lig	*
1G	lag.
1A}	.
*Xlig	*
=22||	=22||
{1F	Ky-
1G	-rie-
=23	=23
0G/ll}	-leis.
=24||	=24||
{1G	B._Chriſt
1B-	e-
=25	=25
1c	-leys,
1r	.
=26	=26
1G	Ky-
1B-	-rie-
=27	=27
1c	-leis,
1r}	.
=28	=28
{1.d	das
2d	helff
=29	=29
1c	vns
1G	der
=30	=30
1A	hey-
1G	-lig
=31	=31
0F}	geiſt,
=32	=32
{1A	vnd
1B-	die
=33	=33
0c	war
=34	=34
1B-	got-
1A	-tes
=35	=35
0B-}	ſtym,
=36	=36
{1A	dʒ
1G	wir
=37	=37
1B-	frö-
1A	-lich
=38	=38
1G	farn
1F	von
=39	=39
*lig	*
1G	hyn.
1A}	.
*Xlig	*
=40||	=40||
{1F	Ky-
2.G	.
4A/	.
=41	=41
1B-	-ri-
1c	-e-
=42	=42
0A	-ley-
=43	=43
0G/ll}	-ſon.
==	==
!!!GTL: Geistliche Volkslieder
!!!AGN: Romanze, Ballade, Lied, religioeses Lied
!! H. Finck 1536 No. 2
!!!ONB: ESAC (Essen Associative Code) Database: ALTDEU
!!!AMT: simple duple
!!!AIN: vox
!!!EED: Helmut Schaffrath
!!!EEV: 1.0
!!!RDF**kern: l = terminal long
!!!AMD: Dorian
!!!URL-scan: https://rosdok.uni-rostock.de/mcrviewer/recordIdentifier/rosdok_ppn738218359/iview2/phys_0749.iview2?x=-1583.232250273661&y=75.2264271536842&scale=0.2846028696088022&rotation=0&layout=singlePageLayout&logicalDiv=log_0021
!!!ENC: Anna Maria Matuszewska
!!!EEV: 2024/21/03
*-	*-
